X: 221
T: Cammolan
%T: aka Drops of Brandy
%O: 1795
%R: slip-jig
Z: 2018 John Chambers <jc:trillian.mit.edu>
B: Wm. Campbell "10th Book of New and Favorite Country Dances, Strathspey Reels" 1795 p.22
F: https://archive.org/details/campbellstenthbo00camp
M: 9/8
L: 1/8
K: G
% - - - - - - - - - - - - - - - - - - - - - - - - -
% Voice 1 arranged for small-scale proofreading
V: 1 staves=2
|:\
d2c BGB BGB | d2c BGB cBA |\
d2c BGB BGB | cBc A2B cBA :|
|:\
G2g gdB gdB | G2g gdB cBA |\
G2g gdB gdB | cBc A2B cBA :|
% - - - - - - - - - - - - - - - - - - - - - - - - -
% Voice 1 preserves the original staff layout
V: 2 clef=bass middle=d
|:\
g3 g3 g3 | g3 G3 d3 |\
g3 g3 g3 | d3 d3 d3 :|
|:\
G3 G3 G3 | G3 g3 d3 |\
g3 g3 g3 | d3 d3 d3 :|
% - - - - - - - - - - - - - - - - - - - - - - - - -
%%begintext align
%% 1st Cu allemande .|. the 2d Cu Do the same
%% lead down the middle up again
%% 1st & 2d Cu Poussette round
%%endtext
% - - - - - - - - - - - - - - - - - - - - - - - - -

%%sep 1 1 500
%%sep 1 1 500

